X:32
T: Evening Prayer Blues
C: by Bill Monroe Arr: Mike Compton
S: MandoZine TablEdit Archives
Z: Transcribed by Mike Perry for MandoZine
L: 1/8
Q: 310
M: 4/4
K: G
 "Pickup Notes"[G2G,2] [G2G,2] GB [c2D2G,2] |
 "G-First Solo"[(3dDG,][dDG,][dDG,] [d2D2G,2] [d2D2G,2] [d2D2G,2] | [dDG,][cDG,] [^ADG,][BDG,] [GG,][BDG,] [cDG,][dDG,] |
 BB [G2G,2] [GG,]B cA | g/g/g/g/ g/g/g/g/ g/g/g/g/ gb |
 gf dc BG =FG | BG cB G2 [GG,][GG,] | G,B, D=F GG, GG, | cB [GG,][GG,] [(3dDG,][dDG,][dDG,] [g2d2D2G,2] |
 [g2d2D2G,2] [g2d2D2G,2] [dDG,][cDG,] [^ADG,]B | [GG,]B cd cB [G2G,2] |
 [GG,]B cA g/g/g/g/ g/g/g/g/ | g/g/g/g/ gb gf dc |
 BG =FG [dDG,][cDG,] [BDG,][GG,] | [G2G,2] [GG,][GG,] D^A, D=F | GG, GG, [G2G,2] [G2G,2] |
 "G-Second Solo"[dDG,]c ^AB G=F DC | ^A,G BG cB [GG,][GG,] |
 [dDG,][cDG,] [^ADG,][BDG,] G=F D^C | ^A,B, ^AB [G2G,2] [G2G,2] |
 [dDG,][cDG,] ^AB G=F D^C | B,D BG cB [GG,][GG,] | [dDG,]g dc BG [=FG,]G | ^AB cB [G2G,2] [G2G,2] |
 G,^A, D=F GG, [G2G,2] | [dDG,]c BG [(3dDG,][dDG,][dDG,] [d2D2G,2] |
 [d2D2G,2] [d2D2G,2] dc ^AB | [GG,][BDG,] [cDG,][dDG,] [cDG,][BDG,] [G2G,2] |
 [G2G,2] [GG,][GG,] g/g/g/g/ g/g/g/g/ | g/g/g/g/ g/g/g/g/ gf dc |
 BG =FG [dDG,][cDG,] ^AB | [G2G,2] [GG,][GG,] G,^A, D=F | GG, G2 dc BG |
 "G-Third Solo"(3ggg [g2d2D2G,2] [g2d2D2G,2] [g2d2D2G,2] | [d2G2G,2] [GG,][GC] [c2G2G,2] [GG,][GG,] |
 [cDG,][BDG,] G2 [GG,]B c[DG,] | g/g/g/g/ g/g/g/g/ g/g/g/g/ gb |
 gf dc BG =FG | BG cB [G2G,2] [GG,][GG,] | G,^A, DF G2 G,2 | [d4G4] [dDG,][cDG,] ^AB |
 G=F D^C B,G ^AB | c^A [GG,][GG,] [dDG,][cDG,] ^AB | G=F D^C B,G ^AB | G,2 [G2G,2] [dDG,][cDG,] ^AB |
 G=F D^C B,G ^AB | cB [GG,][GG,] [dDG,][cDG,] ^AB | G=F D^C B,G ^AB | G2 G,G, G,^A, DG |
 "G-Fourth Solo"G,2 [DG,][DG,] [cDG,][BDG,] [d2D2G,2] | [d2D2G,2] [d2D2G,2] [d2D2G,2] [d2D2G,2] |
 [d2D2G,2] [c2D2G,2] [B2D2G,2] [G2G,2] | [G2G,2] [G2G,2] [GG,][BDG,] [cDG,][BDG,] |
 g/g/g/g/ g/g/g/g/ g/g/g/g/ g^a | g=f dc BG =FG | BG cB G2 [GG,][GG,] | B,D =FG G,G G,G, |
 cB [GG,][GG,] [(3dDG,][dDG,][dDG,] [g2d2D2G,2] | [g2d2D2G,2] [g2d2D2G,2] [g3d3D3G,3][DG,] |
 [B3D3G,3][DG,] [c3G3G,3][DG,] | [BDG,]G c[DG,] g/g/g/g/ g/g/g/g/ |
 g/g/g/g/ ba g/g/g/g/ gf | zc BG BG cB | [G2G,2] G,G, G,^A, D=F | [G2G,2] [D4G,4] [G2G,2] |
 "G - Fifth Solo"[dDG,][cDG,] ^AB G=F D^C | B,G BG cB [G2G,2] | [dDG,][cDG,] ^AB G=F D^C | B,G ^AB [G2G,2] [G2G,2] |
 [dDG,][cDG,] B[DG,] cG ^AB | dc BG cB GG, | [dDG,][cDG,] ^AB G=F D^C | B,G ^AB [G2G,2] [G2G,2] |
 G,^A, D=F [G4G,4] | [d8G8] |
